X:1
T:Title
%%score { ( 1 3 5 ) | ( 2 4 6 ) }
L:1/8
M:4/4
K:Eb
V:1 treble nm="Grand Piano"
V:3 treble 
V:5 treble 
V:2 bass 
V:4 bass 
V:6 bass 
V:1
 z4 z2[Q:1/4=100] E>F | G3 G AFDF | E2 G2 [GB]2 [EG]>[FA] | [GB]3 [GB] [Ac]B[FA][EG] | %4
[M:3/4] [EG]4 F2 |[M:1/4] G>[FA] |[M:4/4] [GB]3 [Ge] [Bd][Ac][FA][Ac] | [GB]2 [EG]2 [Ge]4 | %8
 [CEc][CEc][CEA][A,CF] [DB]2 D2 |[M:5/8] E- E3 z |[M:3/8] GFE |[M:4/4] z z/ C/ DE FAGF | %12
[M:3/4] z z/ D/ EF G2 |[M:1/4] GG |[M:4/4] z4 z2 [_Gd]2 |[M:9/8] d6- d z z | %16
[M:4/4] z2 .Ed [df]e.[EBd]c |[M:9/8] [G-B]6 G/ z/ z z |[M:4/4] B2 z2 z4[K:bass] | %19
[M:3/4] [G,B,E]6 |] %20
V:2
 z4 z2 [E,G,]>[E,A,E] | [E,B,E]3 [E,B,E] [F,B,D]2 [B,,A,B,]2 | %2
 [E,G,B,]2 [E,B,E]2 [E,E]2 [E,B,]>[E,B,] | [E,E]3 [E,E] z GD,E, |[M:3/4] z2 z2 D2 | %5
[M:1/4] [E,B,E]>[E,B,] |[M:4/4] [E,E]3 [E,B,] [E,B,]2 [E,E]2 | [E,E]2 [E,B,]2 [C,C]4 | %8
 A,A,A,,A,, [B,,F,]2 [B,,A,B,]2 |[M:5/8] [E,G,B,]- [E,G,B,]3 z |[M:3/8] B,A,G, | %11
[M:4/4] F,2 z2 .A,2 z2 |[M:3/4] z z/ F,/ [E,G,B,][E,A,D] [E,B,E]2 |[M:1/4] [E,B,][E,B,] | %14
[M:4/4] G,>=A, B,C D2 .[D,A,]2 |[M:9/8] .[G,G]6 z3 |[M:4/4] .[E,B,]2 .E,[K:treble]B .[A,E]c.A,A | %17
[M:9/8][K:bass] .E,2 .E, z [C,C]2- [C,C][=B,,_G,][B,,G,] | %18
[M:4/4] B,,->[B,,-A,] [B,,G,]C, A,,2 z A, |[M:3/4] E,6 |] %20
V:3
 x8 | x8 | x8 | z4 z2 B,2 |[M:3/4] B,6 |[M:1/4] x2 |[M:4/4] x8 | x8 | x8 |[M:5/8] x5 |[M:3/8] x3 | %11
[M:4/4] D2 z2 z4 |[M:3/4] E2 z2 z2 |[M:1/4] x2 |[M:4/4] G>=A Bc d2 z C | %15
[M:9/8] z3 z A2- A[Ac][Ad] |[M:4/4] [Ge]4 z4 |[M:9/8] .E2 .B, z e2- e[E=A][EA] | %18
[M:4/4] E->[E-c] [EB][G,CE] [A,CF]2[K:bass] .[F,B,D]2 |[M:3/4] x6 |] %20
V:4
 x8 | x8 | x8 | z4 [E,E]2 z2 |[M:3/4] B,,6 |[M:1/4] x2 |[M:4/4] x8 | x8 | x8 |[M:5/8] x5 | %10
[M:3/8] x3 |[M:4/4] z z/ E,/ [B,,F,B,][B,,G,B,] [B,,B,]-[B,,B,C]B,A, |[M:3/4] G,2 z2 z2 | %13
[M:1/4] x2 |[M:4/4] x8 |[M:9/8] B,3- B,- [F,B,]2- [F,B,][B,,B,][B,,B,] |[M:4/4] x3[K:treble] x5 | %17
[M:9/8][K:bass] x9 |[M:4/4] G,2 z2 z2 B,,2 |[M:3/4] x6 |] %20
V:5
 x8 | x8 | x8 | x8 |[M:3/4] x6 |[M:1/4] x2 |[M:4/4] x8 | x8 | x8 |[M:5/8] x5 |[M:3/8] x3 | %11
[M:4/4] z B, z2 z4 |[M:3/4] z B, z2 z2 |[M:1/4] x2 |[M:4/4] x8 |[M:9/8] x9 |[M:4/4] x8 | %17
[M:9/8] x9 |[M:4/4] x6[K:bass] x2 |[M:3/4] x6 |] %20
V:6
 x8 | x8 | x8 | x8 |[M:3/4] x6 |[M:1/4] x2 |[M:4/4] x8 | x8 | x8 |[M:5/8] x5 |[M:3/8] x3 | %11
[M:4/4] z B,, z2 z4 |[M:3/4] z E, z2 z2 |[M:1/4] x2 |[M:4/4] x8 |[M:9/8] x9 | %16
[M:4/4] x3[K:treble] x5 |[M:9/8][K:bass] x9 |[M:4/4] x8 |[M:3/4] x6 |] %20

